image/values/icon-5.svg

<svg width="48" height="48" viewBox="0 0 48 48" fill="none" xmlns="http://www.w3.org/2000/svg">
<path d="M32 45.5H16C8.7 45.5 4.5 41.3 4.5 34V14C4.5 6.7 8.7 2.5 16 2.5H32C39.3 2.5 43.5 6.7 43.5 14V34C43.5 41.3 39.3 45.5 32 45.5ZM16 5.5C10.28 5.5 7.5 8.28 7.5 14V34C7.5 39.72 10.28 42.5 16 42.5H32C37.72 42.5 40.5 39.72 40.5 34V14C40.5 8.28 37.72 5.5 32 5.5H16Z" fill="#2E2E2E"/>
<path d="M37 18.5H33C29.96 18.5 27.5 16.04 27.5 13V9C27.5 8.18 28.18 7.5 29 7.5C29.82 7.5 30.5 8.18 30.5 9V13C30.5 14.38 31.62 15.5 33 15.5H37C37.82 15.5 38.5 16.18 38.5 17C38.5 17.82 37.82 18.5 37 18.5Z" fill="#C63031"/>
<path d="M19.995 35.499C19.615 35.499 19.235 35.359 18.935 35.059L14.935 31.059C14.355 30.479 14.355 29.5189 14.935 28.9389L18.935 24.9389C19.515 24.3589 20.475 24.3589 21.055 24.9389C21.635 25.5189 21.635 26.479 21.055 27.059L18.115 29.999L21.055 32.9389C21.635 33.5189 21.635 34.479 21.055 35.059C20.755 35.359 20.375 35.499 19.995 35.499Z" fill="#C63031"/>
<path d="M27.995 35.499C27.615 35.499 27.235 35.359 26.935 35.059C26.355 34.479 26.355 33.5189 26.935 32.9389L29.875 29.999L26.935 27.059C26.355 26.479 26.355 25.5189 26.935 24.9389C27.515 24.3589 28.475 24.3589 29.055 24.9389L33.055 28.9389C33.635 29.5189 33.635 30.479 33.055 31.059L29.055 35.059C28.755 35.359 28.375 35.499 27.995 35.499Z" fill="#C63031"/>
</svg>

<svg xmlns="http://www.w3.org/2000/svg" width="48" height="48" fill="none"><path fill="#2E2E2E" d="M32 45.5H16C8.7 45.5 4.5 41.3 4.5 34V14C4.5 6.7 8.7 2.5 16 2.5h16c7.3 0 11.5 4.2 11.5 11.5v20c0 7.3-4.2 11.5-11.5 11.5Zm-16-40c-5.72 0-8.5 2.78-8.5 8.5v20c0 5.72 2.78 8.5 8.5 8.5h16c5.72 0 8.5-2.78 8.5-8.5V14c0-5.72-2.78-8.5-8.5-8.5H16Z"/><path fill="#C63031" d="M37 18.5h-4c-3.04 0-5.5-2.46-5.5-5.5V9c0-.82.68-1.5 1.5-1.5s1.5.68 1.5 1.5v4a2.5 2.5 0 0 0 2.5 2.5h4c.82 0 1.5.68 1.5 1.5s-.68 1.5-1.5 1.5ZM19.995 35.499c-.38 0-.76-.14-1.06-.44l-4-4a1.51 1.51 0 0 1 0-2.12l4-4c.58-.58 1.54-.58 2.12 0 .58.58.58 1.54 0 2.12l-2.94 2.94 2.94 2.94c.58.58.58 1.54 0 2.12-.3.3-.68.44-1.06.44ZM27.995 35.499c-.38 0-.76-.14-1.06-.44a1.51 1.51 0 0 1 0-2.12l2.94-2.94-2.94-2.94a1.51 1.51 0 0 1 0-2.12c.58-.58 1.54-.58 2.12 0l4 4c.58.58.58 1.54 0 2.12l-4 4c-.3.3-.68.44-1.06.44Z"/></svg>
